packages/web-icons/svgs/won.svg

<svg viewBox="0 0 48 48" xmlns="http://www.w3.org/2000/svg" class="ridi_icon"><path d="M19 29.1l1-4.1h-2l1 4.1zm4.6-6.4h.9l-.5-1.8-.4 1.8zM24 0C10.7 0 0 10.7 0 24s10.7 24 24 24 24-10.7 24-24S37.3 0 24 0zm13.1 24.8c0 .1-.1.1-.1.2s-.2.1-.3.1h-3.5l-2.4 9.3c0 .1-.1.2-.1.2h-3.1s-.1-.1-.1-.2l-2.4-9.3h-2.2l-2.4 9.3c0 .1-.1.2-.1.2h-3s-.1-.1-.1-.2l-2.4-9.3h-3.6c-.1 0-.2 0-.3-.1-.1-.1-.1-.1-.1-.2V23c0-.1.1-.2.1-.2.1-.1.2-.1.3-.1h2.9l-1.6-6.5V16h2.6c.1 0 .2-.1.3 0 .1 0 .2 0 .2.2l1.6 6.5h3.3l1.7-6.5c.1-.2.1-.2.2-.2h2.8c.1 0 .2-.1.3 0 .1.1.1.1.1.2l1.7 6.5h3.3l1.6-6.5c0-.2.1-.2.1-.2h3v.2l-1.7 6.4h2.9c.3 0 .4.1.4.3l.1 1.9zM29 29.1l1-4.1h-2l1 4.1z"/></svg>

<?xml version="1.0" encoding="UTF-8"?>
<svg width="48px" height="48px" viewBox="0 0 48 48" version="1.1" xmlns="http://www.w3.org/2000/svg">
  <!-- Generator: Sketch 41.2 (35397) - http://www.bohemiancoding.com/sketch -->
  <title>won</title>
  <desc>Created with Sketch.</desc>
  <defs></defs>
  <g id="Page-1" stroke="none" stroke-width="1" fill="none" fill-rule="evenodd">
    <g id="won" fill="#000000">
      <g id="레이어_1">
        <path d="M19,29.1 L20,25 L18,25 L19,29.1 Z M23.6,22.7 L24.5,22.7 L24,20.9 L23.6,22.7 Z M24,0 C10.7,0 0,10.7 0,24 C0,37.3 10.7,48 24,48 C37.3,48 48,37.3 48,24 C48,10.7 37.3,0 24,0 Z M37.1,24.8 C37.1,24.9 37,24.9 37,25 C37,25.1 36.8,25.1 36.7,25.1 L33.2,25.1 L30.8,34.4 C30.8,34.5 30.7,34.6 30.7,34.6 L30.4,34.6 L28,34.6 L27.6,34.6 C27.6,34.6 27.5,34.5 27.5,34.4 L25.1,25.1 L22.9,25.1 L20.5,34.4 C20.5,34.5 20.4,34.6 20.4,34.6 L20,34.6 L17.7,34.6 L17.4,34.6 C17.4,34.6 17.3,34.5 17.3,34.4 L14.9,25.1 L11.3,25.1 C11.2,25.1 11.1,25.1 11,25 C10.9,24.9 10.9,24.9 10.9,24.8 L10.9,23 C10.9,22.9 11,22.8 11,22.8 C11.1,22.7 11.2,22.7 11.3,22.7 L14.2,22.7 L12.6,16.2 L12.6,16 L13,16 L15.2,16 C15.3,16 15.4,15.9 15.5,16 C15.6,16 15.7,16 15.7,16.2 L17.3,22.7 L20.6,22.7 L22.3,16.2 C22.4,16 22.4,16 22.5,16 L22.8,16 L25.3,16 C25.4,16 25.5,15.9 25.6,16 C25.7,16.1 25.7,16.1 25.7,16.2 L27.4,22.7 L30.7,22.7 L32.3,16.2 C32.3,16 32.4,16 32.4,16 L32.7,16 L35,16 L35.4,16 L35.4,16.2 L33.7,22.6 L36.6,22.6 C36.9,22.6 37,22.7 37,22.9 L37.1,24.8 L37.1,24.8 Z M29,29.1 L30,25 L28,25 L29,29.1 Z" id="Shape"></path>
      </g>
    </g>
  </g>
</svg>
